src/img/HomePage/Crystals/Down.svg

<?xml version="1.0" encoding="UTF-8"?> <svg xmlns="http://www.w3.org/2000/svg" width="269" height="87" viewBox="0 0 269 87" fill="none"> <path fill-rule="evenodd" clip-rule="evenodd" d="M249.983 21.2726C247.951 22.0312 235.363 24.3437 222.009 26.4082C208.655 28.4741 188.658 31.8842 177.57 33.9859C166.483 36.0863 152.569 38.5333 146.653 39.4206C140.737 40.3092 135.931 41.5782 135.975 42.2431C136.02 42.9067 137.039 45.0768 138.241 47.0634C138.584 47.6305 138.867 48.1097 139.212 48.5397C141.156 50.9652 145.052 51.8275 172.593 58.0855C178.109 59.3391 193.823 64.8641 207.512 70.3634C221.2 75.8628 233.203 80.3088 234.182 80.2434C235.163 80.178 235.903 79.2104 235.829 78.0918C235.607 74.7607 238.539 69.1497 246.6 57.4823C250.793 51.4132 256.772 41.6762 259.888 35.8449C264.845 26.566 265.346 24.8569 263.897 22.1675C262.108 18.8448 257.305 18.5356 249.983 21.2726ZM204.104 37.3913C223.132 36.014 254.533 29.9134 260.047 26.5225C261.786 25.4527 263.373 24.5038 263.574 24.414C265.559 23.5215 250.632 49.2361 244.354 57.5243C241.598 61.1633 238.1 67.1662 236.582 70.8663C235.063 74.5651 232.987 77.6571 231.968 77.7356C230.95 77.8153 219.558 73.559 206.653 68.2774C190.108 61.5078 177.169 57.2651 162.775 53.8941C152.665 51.5261 145.992 49.6094 142.492 48.0581C142.919 48.0899 143.569 47.8502 144.429 47.2354C146.408 45.823 147.233 45.6389 160.437 43.6793C166.175 42.8262 175.538 41.2663 181.244 40.2125C186.949 39.1575 197.236 37.889 204.104 37.3913Z" fill="#FA007A"></path> <path fill-rule="evenodd" clip-rule="evenodd" d="M76.9335 50.9994C73.2903 53.7762 78.0255 58.9166 88.5673 63.6277C93.9301 66.0231 99.6844 67.919 101.356 67.8399C109.441 67.4571 116.615 54.239 110.354 51.2587C106.165 49.2662 79.4791 49.058 76.9335 50.9994ZM92.1825 58.3911C94.513 61.7907 90.4115 60.2894 84.7767 55.6806L79.1115 51.0458L93.6042 51.4261C101.575 51.6343 108.643 52.0942 109.311 52.447C111.706 53.7154 109.722 60.1393 105.985 63.2165C102.934 65.7272 101.3 66.065 97.7729 64.9113C95.352 64.1203 93.3345 62.7135 93.2905 61.7858C93.2417 60.7538 94.973 60.9083 97.7497 62.1827C101.84 64.0577 102.65 63.9437 105.915 61.032C109.994 57.3965 109.133 56.7906 104.476 60.016C101.952 61.7634 100.497 61.6505 96.1885 59.3724C93.3133 57.8517 91.5105 57.4111 92.1825 58.3911Z" fill="#FA007A"></path> <path d="M0.890674 8.75351C1.133 6.33077 3.10648 4.63683 7.55945 3.03296C16.2646 -0.102519 19.9334 -0.266571 23.7031 2.31367C26.4839 4.21687 26.5606 4.54788 24.2567 4.7004C22.7882 4.79888 21.289 4.11374 20.928 3.18016C20.4789 2.0175 17.5376 2.3643 11.5989 4.2798C5.42892 6.27058 4.08849 7.13506 6.95637 7.27756C9.17298 7.38817 11.7165 7.61198 12.6088 7.77563C13.5011 7.93929 15.3209 8.15562 16.6525 8.25664C18.3779 8.38729 18.1712 8.87969 15.9295 9.97189C13.2759 11.2637 13.5821 11.4824 17.892 11.3749C20.6999 11.303 24.1527 9.97498 25.5637 8.42345C27.9684 5.7793 28.1027 5.79862 27.688 8.72497C27.3188 11.3226 25.6416 12.0086 17.7226 12.7921C4.67315 14.0855 0.459945 13.0736 0.890674 8.75351Z" fill="#FA007A"></path> </svg>

<svg xmlns="http://www.w3.org/2000/svg" width="269" height="87" fill="none"><path fill-rule="evenodd" clip-rule="evenodd" d="M249.983 21.273c-2.032.758-14.62 3.07-27.974 5.135-13.354 2.066-33.351 5.476-44.439 7.578-11.087 2.1-25.001 4.547-30.917 5.435-5.916.888-10.722 2.157-10.678 2.822.045.664 1.064 2.834 2.266 4.82.343.567.626 1.047.971 1.477 1.944 2.425 5.84 3.288 33.381 9.546 5.516 1.253 21.23 6.778 34.919 12.277 13.688 5.5 25.691 9.946 26.67 9.88.981-.065 1.721-1.033 1.647-2.151-.222-3.331 2.71-8.942 10.771-20.61 4.193-6.069 10.172-15.806 13.288-21.637 4.957-9.279 5.458-10.988 4.009-13.677-1.789-3.323-6.592-3.632-13.914-.895ZM204.104 37.39c19.028-1.377 50.429-7.478 55.943-10.868 1.739-1.07 3.326-2.02 3.527-2.109 1.985-.893-12.942 24.822-19.22 33.11-2.756 3.64-6.254 9.642-7.772 13.342-1.519 3.7-3.595 6.791-4.614 6.87-1.018.08-12.41-4.177-25.315-9.459-16.545-6.77-29.484-11.012-43.878-14.383-10.11-2.368-16.783-4.285-20.283-5.836.427.032 1.077-.208 1.937-.823 1.979-1.412 2.804-1.596 16.008-3.556 5.738-.853 15.101-2.413 20.807-3.467 5.705-1.055 15.992-2.323 22.86-2.82ZM76.933 51c-3.643 2.776 1.092 7.917 11.634 12.628 5.363 2.395 11.117 4.291 12.789 4.212 8.085-.383 15.259-13.601 8.998-16.581-4.189-1.993-30.875-2.201-33.42-.26Zm15.25 7.391c2.33 3.4-1.772 1.898-7.406-2.71l-5.665-4.635 14.492.38c7.971.208 15.039.668 15.707 1.021 2.395 1.268.411 7.692-3.326 10.77-3.051 2.51-4.685 2.848-8.212 1.694-2.421-.79-4.438-2.197-4.483-3.125-.048-1.032 1.683-.878 4.46.397 4.09 1.875 4.9 1.76 8.165-1.151 4.079-3.635 3.218-4.241-1.439-1.016-2.524 1.747-3.979 1.635-8.287-.644-2.876-1.52-4.678-1.96-4.006-.98Z" fill="#FA007A"/><path d="M.89 8.754c.243-2.423 2.216-4.117 6.67-5.721 8.705-3.136 12.373-3.3 16.143-.72 2.78 1.904 2.858 2.235.554 2.387-1.469.099-2.968-.586-3.329-1.52-.45-1.163-3.39-.816-9.33 1.1-6.17 1.99-7.51 2.855-4.642 2.998 2.217.11 4.76.334 5.653.498.892.163 2.712.38 4.043.48 1.726.131 1.52.624-.723 1.716-2.653 1.292-2.347 1.51 1.963 1.403 2.808-.072 6.26-1.4 7.672-2.952 2.404-2.644 2.539-2.624 2.124.302-.37 2.598-2.046 3.284-9.965 4.067C4.673 14.085.46 13.074.89 8.754Z" fill="#FA007A"/></svg>
